src/svg/icon-id-card.svg

<svg width="11" height="10" viewBox="0 0 11 10" fill="none" xmlns="http://www.w3.org/2000/svg">
<path d="M9.54995 0.918701H1.49337C0.953653 0.918701 0.515625 1.4116 0.515625 2.01893V2.23897H10.5277V2.01893C10.5277 1.4116 10.0897 0.918701 9.54995 0.918701Z" fill="currentColor"/>
<path fill-rule="evenodd" clip-rule="evenodd" d="M1.49337 9.10443C0.953653 9.10443 0.515625 8.61153 0.515625 8.0042V2.23901H10.5277V8.0042C10.5277 8.61153 10.0897 9.10443 9.54995 9.10443H1.49337ZM6.94916 3.18301C6.79858 3.18301 6.67539 3.32164 6.67539 3.49107C6.67539 3.66051 6.79858 3.79913 6.94916 3.79913H9.1393C9.28987 3.79913 9.41306 3.66051 9.41306 3.49107C9.41306 3.32164 9.28987 3.18301 9.1393 3.18301H6.94916ZM6.67539 4.5913C6.67539 4.42186 6.79858 4.28323 6.94916 4.28323H9.1393C9.28987 4.28323 9.41306 4.42186 9.41306 4.5913C9.41306 4.76073 9.28987 4.89936 9.1393 4.89936H6.94916C6.79858 4.89936 6.67539 4.76073 6.67539 4.5913ZM6.94916 5.38346C6.79858 5.38346 6.67539 5.52209 6.67539 5.69153C6.67539 5.86096 6.79858 5.99959 6.94916 5.99959H9.1393C9.28987 5.99959 9.41306 5.86096 9.41306 5.69153C9.41306 5.52209 9.28987 5.38346 9.1393 5.38346H6.94916ZM3.62093 3.17421C4.21931 3.17421 4.70427 3.71992 4.70427 4.39326C4.70427 5.0666 4.21931 5.61231 3.62093 5.61231C3.02255 5.61231 2.53759 5.0666 2.53759 4.39326C2.53759 3.71992 3.02255 3.17421 3.62093 3.17421ZM1.97246 6.16902L1.64785 7.30666C1.52661 7.73355 1.81015 8.16924 2.20712 8.16924H5.03474C5.43366 8.16924 5.71525 7.73575 5.59401 7.30886L5.2694 6.17122C5.1814 5.85876 4.86853 5.70253 4.60258 5.83896C4.36597 5.95998 4.03745 6.0678 3.62093 6.0678C3.20441 6.0678 2.87785 5.95998 2.63928 5.83676C2.37333 5.69813 2.06241 5.85656 1.97246 6.16902Z" fill="currentColor"/>
</svg>

<svg xmlns="http://www.w3.org/2000/svg" width="11" height="10" fill="none" viewBox="0 0 11 10"><path fill="currentColor" d="M9.55.919H1.493c-.54 0-.977.493-.977 1.1v.22h10.012v-.22c0-.607-.438-1.1-.978-1.1"/><path fill="currentColor" fill-rule="evenodd" d="M1.493 9.104c-.54 0-.977-.492-.977-1.1V2.24h10.012v5.765c0 .608-.438 1.1-.978 1.1zM6.95 3.183c-.15 0-.274.139-.274.308 0 .17.124.308.274.308h2.19c.15 0 .274-.138.274-.308s-.123-.308-.274-.308zm-.274 1.408c0-.17.124-.308.274-.308h2.19c.15 0 .274.139.274.308 0 .17-.123.308-.274.308H6.95c-.15 0-.274-.138-.274-.308m.274.792c-.15 0-.274.14-.274.309S6.8 6 6.95 6h2.19c.15 0 .274-.139.274-.308 0-.17-.123-.309-.274-.309zM3.621 3.174c.598 0 1.083.546 1.083 1.22S4.22 5.611 3.621 5.611s-1.083-.545-1.083-1.219c0-.673.485-1.219 1.083-1.219M1.972 6.17l-.324 1.138c-.121.427.162.862.56.862h2.827c.399 0 .68-.433.559-.86l-.325-1.14c-.088-.312-.4-.468-.666-.332a2.14 2.14 0 0 1-.982.229 2.1 2.1 0 0 1-.982-.231c-.266-.139-.577.02-.667.332" clip-rule="evenodd"/></svg>
